X: 43123
T: Wingflapper, The
R: slip jig
M: 9/8
K: Gmajor
BDE GAB c2A|B2G gag fdc|BDE GAB c2B|AA/A/A ded cBA|
BDE GAB c2A|B2G gag fdc|Bcd e/f/ga de/f/g|f2d ded cBA||
~G3 gaf gdc|BGg gag fdc|Bcd e/f/ga de/f/g|f2d ded cBA|
~G3 gaf gdc|BGg gag fga|bc'b agf gfd|fed cde fdc||

